X:7443
T:The Waulking o' the Fauld
T:My Peggy Is a Young Thing
O:england
B:The Songs of Scotland Without Words, J T Surenne
M:4/4
L:1/8
K:Am
G|EAA>B A2 ge|dBAG E2 DE|G>ABA GEDE|
G>ABA GEDG|EAA>B A2 GA|B>ABd e2 ga|
b>age degB|A>GEG A3||g|eaa>b a2 ga|
b2 ag e2 de|g>agB G>ABG|g>agB G>ABG|
Aaa>b a2 g=f|e>deg a2 ga|b>age degB|A>GEG A2|]
